resources/svg/twitter-header.svg

<svg class="w-[20px] md:w-[26px]" width="26" height="26" viewBox="0 0 26 26" fill="none" xmlns="http://www.w3.org/2000/svg">
    <rect width="26" height="26" rx="4" fill="#040404"/>
    <circle cx="13" cy="13" r="13" fill="white"/>
    <path fill-rule="evenodd" clip-rule="evenodd" d="M0 13C0 5.82401 5.824 0 13 0C20.1761 0 26 5.82401 26 13C26 20.176 20.1761 26 13 26C5.824 26 0 20.176 0 13ZM6.47178 19.825L11.3084 14.0462L6.17504 6.17501H10.9229L13.9769 10.8578L17.8962 6.17501H19.6767L14.7567 12.0535L19.8251 19.825H15.0772L12.0881 15.2418L8.25218 19.825H6.47178ZM10.2357 7.63751H8.76981L15.7644 18.3625H17.2303L10.2357 7.63751Z" fill="#040404"/>
</svg>

<svg class="w-[20px] md:w-[26px]" width="26" height="26" fill="none" xmlns="http://www.w3.org/2000/svg"><rect width="26" height="26" rx="4" fill="#040404"/><circle cx="13" cy="13" r="13" fill="#fff"/><path fill-rule="evenodd" clip-rule="evenodd" d="M0 13a13 13 0 1 1 26 0 13 13 0 0 1-26 0Zm6.5 6.8 4.8-5.8-5.1-7.8h4.7l3 4.7 4-4.7h1.8l-5 5.9 5.1 7.7h-4.7l-3-4.6-3.8 4.6H6.5Zm3.7-12.2H8.8l7 10.8h1.4l-7-10.8Z" fill="#040404"/></svg>
